!!!SOCIAL_FUNCTION:	unclassified songs
!!!REG: Great Lakes
!!!PDT:	1909
!!!OTL: No_194_Friendly_Song_(c).krn
**kern
*staff1
=1-
*clefF4
*k[f#]
*M4/4
8.d\L
16d\K
8d\
16B\L
16B\JJ
8d\L
8d\
8B\
8B\J
=2
8.d\L
16d\K
8d\
16B\L
16B\JJ
8d\L
8d\
8B\
8B\J
=3
8.G\L
16G\K
8G\
16G\L
16G\JJ
8E\L
8E\
8D\
8D\J
=4
8.G\L
16G\K
8G\
16G\L
16G\JJ
16B\LK
8.G\J
16D\LK
8D\
16D\Jk
=5
4.D\
8D\
8E\L
8D\J
4C/
=6||
*M5/4
16D\LK
[8.D\
8D\]
8D\
8E\
8D\J
16BB/LK
8.BB/
8.BB/
16AA/Jk
=7
16GG/LK
8.GG/J
[2GG/
2GG/]
=8||
*M4/4
8G\L
8G\
8.G\
16G\Jk
16B\LK
8.G\J
4E\
=9
16G\LK
8.G\
8G\
16G\L
16G\JJ
16B\LK
8.G\
8.E\
16D\Jk
=10
4.D\
8D\
8E\L
8D\J
4C/
=11||
*M5/4
16D\LK
8.D\
8.D\
16D\K
8E\
8D\J
8.BB/L
16D/K
8BB/
8AA/J
=12
16GG/LK
8.GG/J
[2GG/
2GG/]
==
*-
